proprietary/assets/icons/infrastructuur-en-transport/trein-op-spoorwegovergang.svg

<svg height="64" viewBox="0 0 64 64" width="64" xmlns="http://www.w3.org/2000/svg"><path d="m0 0h64v64h-64z" fill="none"/><path d="m42 19.6c0-3.9192-3.6978-9.8011-6.2626-13.4094-1.427-2.0076-3.7401-3.1906-6.2033-3.1906h-27.5341v4h5c.5523 0 1 .4477 1 1v7c0 .5522-.4477 1-1 1h-5v12h33s7-3.3334 7-8.4zm-23-4.6c0 .5522-.4477 1-1 1h-5c-.5523 0-1-.4478-1-1v-7c0-.5523.4477-1 1-1h5c.5523 0 1 .4477 1 1zm7 0v-7c0-.5523.4477-1 1-1h2.5342c1.1714 0 2.2715.5635 2.9429 1.5078 1.6668 2.3447 2.8911 4.3559 3.7583 6.0263.3473.6691-.1324 1.4659-.8863 1.4659h-8.3491c-.5523 0-1-.4478-1-1z"/><path d="m62 30h-6v-13.0081l3.7139 2.2855c.7016.4319 1.6265.2193 2.0635-.4912.4341-.7056.2144-1.6294-.4912-2.0635l-4.4244-2.7227 4.4243-2.7227c.7056-.4341.9253-1.3579.4912-2.0635-.4341-.7061-1.3584-.9258-2.0635-.4912l-5.7138 3.5163-5.7139-3.5162c-.7065-.4346-1.6299-.2148-2.0635.4912-.4341.7056-.2144 1.6294.4912 2.0635l4.4244 2.7226-4.4243 2.7227c-.7056.4341-.9253 1.3579-.4912 2.0635.437.7105 1.3618.9231 2.0635.4912l3.7138-2.2855v13.0081h-50v3h28v27h13l-.9655-7h5.0345l1.931 7h13l-11.1724-27h11.1724zm-20.7931 17-.9655-7h3.2414l1.931 7zm1.1724-11h-2.6897l-.4138-3h2.2758z"/></svg>

<?xml version="1.0" encoding="utf-8"?>
<!-- Generator: Adobe Illustrator 19.1.0, SVG Export Plug-In . SVG Version: 6.00 Build 0)  -->
<svg version="1.2" baseProfile="tiny" xmlns="http://www.w3.org/2000/svg" xmlns:xlink="http://www.w3.org/1999/xlink" x="0px"
	 y="0px" width="64px" height="64px" viewBox="0 0 64 64" xml:space="preserve">
<g id="_x36_4px_Box">
	<rect fill="none" width="64" height="64"/>
</g>
<g id="Icon">
	<g>
		<path d="M42,19.6c0-3.9192-3.6978-9.8011-6.2626-13.4094C34.3104,4.183,31.9973,3,29.5341,3H2v4h5c0.5523,0,1,0.4477,1,1v7
			c0,0.5522-0.4477,1-1,1H2v12h33C35,28,42,24.6666,42,19.6z M19,15c0,0.5522-0.4477,1-1,1h-5c-0.5523,0-1-0.4478-1-1V8
			c0-0.5523,0.4477-1,1-1h5c0.5523,0,1,0.4477,1,1V15z M26,15V8c0-0.5523,0.4477-1,1-1h2.5342c1.1714,0,2.2715,0.5635,2.9429,1.5078
			c1.6668,2.3447,2.8911,4.3559,3.7583,6.0263C36.5827,15.2032,36.103,16,35.3491,16H27C26.4477,16,26,15.5522,26,15z"/>
		<path d="M62,30h-6V16.9919l3.7139,2.2855c0.7016,0.4319,1.6265,0.2193,2.0635-0.4912c0.4341-0.7056,0.2144-1.6294-0.4912-2.0635
			L56.8618,14l4.4243-2.7227c0.7056-0.4341,0.9253-1.3579,0.4912-2.0635c-0.4341-0.7061-1.3584-0.9258-2.0635-0.4912L54,12.2389
			l-5.7139-3.5162c-0.7065-0.4346-1.6299-0.2148-2.0635,0.4912c-0.4341,0.7056-0.2144,1.6294,0.4912,2.0635L51.1382,14
			l-4.4243,2.7227c-0.7056,0.4341-0.9253,1.3579-0.4912,2.0635c0.437,0.7105,1.3618,0.9231,2.0635,0.4912L52,16.9919V30H2v3h28v27
			h13l-0.9655-7h5.0345L49,60h13L50.8276,33H62V30z M41.2069,47l-0.9655-7h3.2414l1.931,7H41.2069z M42.3793,36h-2.6897l-0.4138-3
			h2.2758L42.3793,36z"/>
	</g>
</g>
</svg>
